X:1
T:Hail the Day That Sees Him Rise
T:Text: Charles Wesley, 1739, and Thomas Cotterill, 1820, alt. Tune: Robert Williams, 1817
T:77 77 with alleluias LLANFAIR www.hymnary.org/text/hail_the_day_that_sees_him_rise
T:This hymn is in the public domain. You may freely use this score for personal and congregational worship. If you reproduce the score, please credit Hymnary.org as the source. 
T:Hail the Day That Sees Him Rise
T:This hymn is in the public domain. You may freely use this score for personal and congregational worship. If you reproduce the score, please credit Hymnary.org as the source. 
T:This hymn is in the public domain. You may freely use this score for personal and congregational worship. If you reproduce the score, please credit Hymnary.org as the source. 
Z:This hymn is in the public domain. You may freely use this score for personal and congregational worship. If you reproduce the score, please credit Hymnary.org as the source.
%%score ( 1 2 ) ( 3 4 )
L:1/8
M:4/4
K:F
V:1 treble nm="SOPRANO ALTO" snm="S. A."
V:2 treble 
V:3 bass nm="TENOR BASS" snm="T. B."
V:4 bass 
V:1
"^1""^2""^3""^4""^5" F2 F2 A2 A2 | c2 BA G4 | (c3 B A2) BA | G4 F4 | F2 F2 A2 A2 | c2 BA G4 | %6
w: Hail the day that|sees him * rise,|Al- * * le- *|lu- ia!|to his throne be-|yond the * skies.|
w: There for him high|tri- umph * waits;|Al- * * le- *|lu- ia!|lift your heads, e-|ter- nal * gates.|
w: High- est heaven its|Lord re- * ceives;|Al- * * le- *|lu- ia!|yet he loves the|earth he * leaves.|
w: Still for us he|in- ter- * cedes;|Al- * * le- *|lu- ia!|his a- ton- ing|death he * pleads,|
w: There we shall with|you re- * main,|Al- * * le- *|lu- ia!|part- ners of your|end- less * reign,|
 (c3 B A2) BA | G4 F4 | A2 A2 c2 c2 | dc BA G4 | (A3 G A2) =B2 | c4 c4 |1 F2 F2 A2 A2 | c2 BA G4 | %14
w: Al- * * le- *|lu- ia!|Christ, the Lamb for|sin- * ners * given,|Al- * * le-|lu- ia!|en- ters now the|high- est * heaven.|
w: Al- * * le- *|lu- ia!|He has con- quered|death * and * sin;|Al- * * le-|lu- ia!|take the King of|glo- ry * in.|
w: Al- * * le- *|lu- ia!|Though re- turn- ing|to * his * throne,|Al- * * le-|lu- ia!|still he calls us|all his * own.|
w: Al- * * le- *|lu- ia!|near him- self pre-|pares _ our * place,|Al- * * le-|lu- ia!|he the first- fruits|of our * race.|
w: Al- * * le- *|lu- ia!|see you with un-|cloud- * ed * view,|Al- * * le-|lu- ia!|find our heaven of|heavens in * you.|
 (c3 B A2) BA | G4 F4 |] %16
w: Al- * * le- *|lu- ia!|
w: Al- * * le- *|lu- ia!|
w: Al- * * le- *|lu- ia!|
w: Al- * * le- *|lu- ia!|
w: Al- * * le- *|lu- ia!|
V:2
 C2 C2 F2 F2 | F2 GF E4 | (C2 DE F2) F2 | (F2 E2) F4 | C2 C2 F2 F2 | F2 GF E4 | (C2 DE F2) F2 | %7
 (F2 E2) F4 | C2 D2 C2 F2 | D2 EF E4 | (F3 G F2) F2 | (E3 F) E4 |1 F2 C2 C2 F2 | F2 GF E4 | %14
 (C2 DE F2) F2 | (F2 E2) F4 |] %16
V:3
 A,2 A,2 F,2 F,2 | C2 D2 G,4 | ((A,3 B, C2)) B,C | (D2 C2) A,4 | A,2 A,2 F,2 F,2 | C2 D2 G,4 | %6
 ((A,3 B,)) C2 B,C | (D2 C2) A,4 | A,2 F,2 G,2 A,2 | B,2 C2 C4 | C6 F,2 | (G,3 A,) G,4 |1 %12
 A,2 CB, A,2 F,2 | C2 D2 G,4 | ((A,3 B,)) C2 B,C | (D2 C2) A,4 |] %16
V:4
 F,2 F,2 D,2 D,2 | A,,2 B,,2 C,4 | x3 G, F,2 D,C, | (B,,2 C,2) F,4 | F,2 F,2 D,2 D,2 | %5
 A,,2 B,,2 C,4 | x3 G, F,2 D,C, | (B,,2 C,2) F,4 | F,2 D,2 E,2 F,2 | B,A, G,F, C,4 | %10
 (F,3 E, F,2) D,2 | C,4 C,4 |1 F,2 A,G, F,2 D,2 | A,,2 B,,2 C,4 | x3 G, F,2 D,C, | %15
 (B,,2 C,2) F,,4 |] %16

